images/icons/compare.svg

<svg width="10" height="13" viewBox="0 0 10 13" fill="none" xmlns="http://www.w3.org/2000/svg">
<g clip-path="url(#clip0_45927_1092)">
<path d="M6 0.177399H4V12.1774H6V0.177399Z" fill="black"/>
<path d="M2 4.1774H0V12.1774H2V4.1774Z" fill="black"/>
<path d="M10 3.1774H8V12.1774H10V3.1774Z" fill="black"/>
</g>
<defs>
<clipPath id="clip0_45927_1092">
<rect width="10" height="12" fill="white" transform="translate(0 0.177399)"/>
</clipPath>
</defs>
</svg>

<svg xmlns="http://www.w3.org/2000/svg" width="10" height="13" fill="none" viewBox="0 0 10 13"><g fill="#000" clip-path="url(#a)"><path d="M6 .18H4v12h2v-12ZM2 4.18H0v8h2v-8ZM10 3.18H8v9h2v-9Z"/></g><defs><clipPath id="a"><path fill="#fff" d="M0 .18h10v12H0z"/></clipPath></defs></svg>
